X:1
T:Title
%%score { ( 1 3 ) | ( 2 4 ) }
L:1/8
M:9/8
K:Db
V:1 treble nm="Grand Piano"
V:3 treble 
V:2 bass 
V:4 bass 
V:1
 z3 z3[Q:1/4=100] [DF]2 [EG] | [FA]2 [_F=G] [=FA]3 [Fd]3 | [Gd]2 [Ge] [Fd]3- [Fd]2 [Fd] | %3
 c2 B A3 B3 | A2 G F3- F2 F | F2 G A3 A3 | B2 [Gc] [Fd]3- [Fd]2 [Fd] | e2 d c3- c2 [Ec] | %8
[M:3/4] [DB]2 [Gc] [Fd]3 |[M:2/4] z2 z [A,CE] |[M:9/8] z2 A, A,2 A BAF | %11
 d2- [Fd-] [Fd]2 [Fd] [Ge]2 [Fd] | [Ec][CE][DF] [EG]F[A,EG] [EAc]2 [CGB] | [DFA]6 z2 [A,CE] | %14
 z2 A, A,2 A BAF | d2- [Fd-] [Fd]2 [Fd] [Ge]2 [Fd] | [Ec][CE][DF] [EG][DF][EG] [Gc]2 [GA] | %17
[M:3/4] [Fd]6 |] %18
V:2
 z3 z3 [D,A,]3 | [D,D]2 [D,D] [D,D]3 [D,_C]3 | [G,B,]2 [G,=A,] [D,_A,]3- [D,A,]2 [D,A,] | %3
 [A,E]2 [A,CG] [A,DF]3[K:bass] [G,A,C]3 | [F,A,D]2 [E,A,C] [D,A,D]3- [D,A,D]2 [D,A,D] | %5
 [D,A,D]2 [E,A,C] [F,A,D]3 [F,_CD]3 | [G,B,D]2 [E,A,] [D,A,]3- [D,A,]2 [D,A,] | %7
 [A,G]2 [A,F][K:bass] [A,E]3- [A,E]2 [A,,A,] |[M:3/4] [A,,A,]2 [A,,A,] [D,A,]3 | %9
[M:2/4][K:treble] AA G[K:bass]A,, |[M:9/8] [A,,E,A,]2 [A,,E,] .[A,,E,]3 z2 [D,A,D] | %11
 [D,A,]2 [D,A,] [D,A,]2 [D,A,] [D,A,]2 [D,A,] | z3 .[A,,A,]3 z3 | %13
 D,3- D,2[K:treble] A AG[K:bass]A,, | [A,,E,A,]2 [A,,E,] .[A,,E,]3 z2 [D,A,D] | %15
 [D,A,]2 [D,A,] [D,A,]2 [D,A,] [D,A,]2 [D,A,] | [A,,A,]2 [A,,A,] [A,,A,]2 [A,,A,] [A,E]2 [A,C] | %17
[M:3/4] [D,A,]6 |] %18
V:3
 x9 | x9 | x9 | x9 | x9 | x9 | x9 | x9 |[M:3/4] x6 |[M:2/4] x4 |[M:9/8] C6 z3 | .F3 z3 z3 | x9 | %13
 x9 | C6 z3 | .F3 z3 z3 | x9 |[M:3/4] x6 |] %18
V:4
 x9 | x9 | x9 | x6[K:bass] x3 | x9 | x9 | x9 | x3[K:bass] x6 |[M:3/4] x6 | %9
[M:2/4][K:treble] x3[K:bass] x |[M:9/8] x9 | x9 | [A,,A,]2 [A,,A,] z =DA,, A,,2 A,, | %13
 x5[K:treble] x3[K:bass] x | x9 | x9 | x9 |[M:3/4] x6 |] %18

